TiltedControls.Shared/Resources/InputPromptImages/Nintendo/Switch-ZL.svg

<svg xmlns="http://www.w3.org/2000/svg" version="1.1" xmlns:xlink="http://www.w3.org/1999/xlink" x="0px" y="0px" viewBox="0 0 100 100">
<defs>
<g id="Layer1_0_FILL">
<path fill="#4F4F4F" stroke="none" d="
M 88.5 34.35
Q 87.65 30.1 82.75 28.6
L 33.6 15.15
Q 26.8 15.15 19.15 19.7 18.1 43.4 11.1 69 10.6 75 14.7 78.4 27.4 85.2 45.6 83.3 49.2 83.05 52.75 82 56 80.85 59.1 79.5 62.5 78.05 65.7 76.3 69.3 74.45 72.45 71.9 74.55 70.15 76.45 68.25 79.4 65.25 81.6 61.75 84 57.8 85.35 53.5 88.1 45.25 88.5 34.35
M 60.05 36.1
L 52 45.35 60.45 47.75 60.45 51.7 47.4 47.95 47.4 44 55.65 34.8 47.55 32.5 47.55 28.7 60.05 32.3 60.05 36.1
M 63.3 33.4
L 67.45 34.5 67.45 49.45 75.1 51.45 75.1 55.3 63.3 52.2 63.3 33.4
M 32.45 25.4
Q 32.5 24.35 33.25 23.65 34.05 22.95 35.05 23 36.1 23.05 36.8 23.85 37.5 24.6 37.45 25.65 36.35 47.6 22.6 70.2 31.35 47.55 32.45 25.4 Z"/>

<path fill="#626262" stroke="none" d="
M 33.25 23.65
Q 32.5 24.35 32.45 25.4 31.35 47.55 22.6 70.2 36.35 47.6 37.45 25.65 37.5 24.6 36.8 23.85 36.1 23.05 35.05 23 34.05 22.95 33.25 23.65 Z"/>

<path fill="#9A9A9A" stroke="none" d="
M 67.45 34.5
L 63.3 33.4 63.3 52.2 75.1 55.3 75.1 51.45 67.45 49.45 67.45 34.5
M 52 45.35
L 60.05 36.1 60.05 32.3 47.55 28.7 47.55 32.5 55.65 34.8 47.4 44 47.4 47.95 60.45 51.7 60.45 47.75 52 45.35 Z"/>
</g>

<path id="Layer1_0_1_STROKES" stroke="#1B1B1B" stroke-width="5" stroke-linejoin="round" stroke-linecap="round" fill="none" d="
M 88.5 34.35
Q 87.65 30.1 82.75 28.6
L 33.6 15.15
Q 26.8 15.15 19.15 19.7 18.1 43.4 11.1 69 10.6 75 14.7 78.4 27.4 85.2 45.6 83.3 49.2 83.05 52.75 82 56 80.85 59.1 79.5 62.5 78.05 65.7 76.3 69.3 74.45 72.45 71.9 74.55 70.15 76.45 68.25 79.4 65.25 81.6 61.75 84 57.8 85.35 53.5 88.1 45.25 88.5 34.35 Z"/>

</defs>

<g transform="matrix( 1, 0, 0, 1, 0,0) ">
<use xlink:href="#Layer1_0_FILL"/>

<use xlink:href="#Layer1_0_1_STROKES"/>
</g>

<g transform="matrix( 1, 0, 0, 1, -3.4,-28) ">
<clipPath id="Mask_Mask_1">
<rect x="-2.9" y="-2" width="112.6" height="20.8" fill="#FFFFFF" stroke="none"/>
</clipPath>

<text clip-path="url(#Mask_Mask_1)" writing-mode="lr"><tspan x="-0.85" y="13.6" baseline-shift="0%" kerning="auto" font-family="Arial_Regular" font-size="15" fill="#999999" xml:space="preserve">Nintendo Switch</tspan></text>
</g>
</svg>

<?xml version="1.0" encoding="utf-8"?>
<!-- Generator: Adobe Illustrator 25.0.0, SVG Export Plug-In . SVG Version: 6.00 Build 0)  -->
<svg version="1.1" id="Layer_1" xmlns="http://www.w3.org/2000/svg" xmlns:xlink="http://www.w3.org/1999/xlink" x="0px" y="0px"
	 viewBox="0 0 100 100" style="enable-background:new 0 0 100 100;" xml:space="preserve">
<g transform="matrix( 1, 0, 0, 1, 0,0) ">
	<g>
		<g id="Layer1_0_FILL">
			<path style="fill:#4F4F4F;" d="M88.5,34.3c-0.6-2.8-2.5-4.7-5.8-5.7L33.6,15.1c-4.5,0-9.3,1.5-14.4,4.6
				c-0.7,15.8-3.4,32.2-8,49.3c-0.3,4,0.9,7.1,3.6,9.4c8.5,4.5,18.8,6.2,30.9,4.9c2.4-0.2,4.8-0.6,7.2-1.3c2.2-0.8,4.3-1.6,6.3-2.5
				c2.3-1,4.5-2,6.6-3.2c2.4-1.2,4.7-2.7,6.8-4.4c1.4-1.2,2.7-2.4,4-3.7c2-2,3.7-4.2,5.2-6.5c1.6-2.6,2.9-5.4,3.8-8.2
				C87.2,48,88.2,41.6,88.5,34.3 M60,36.1l-8,9.2l8.5,2.4v4l-13-3.8v-4l8.2-9.2l-8.1-2.3v-3.8L60,32.3V36.1 M63.3,33.4l4.1,1.1v15
				l7.7,2v3.8l-11.8-3.1V33.4 M32.5,25.4c0-0.7,0.3-1.3,0.8-1.8c0.5-0.5,1.1-0.7,1.8-0.6c0.7,0,1.3,0.3,1.8,0.9
				c0.5,0.5,0.7,1.1,0.7,1.8c-0.7,14.6-5.7,29.5-14.9,44.5C28.4,55.1,31.7,40.2,32.5,25.4z"/>
			<path style="fill:#626262;" d="M33.2,23.6c-0.5,0.5-0.8,1-0.8,1.8c-0.7,14.8-4,29.7-9.9,44.8c9.2-15.1,14.1-29.9,14.9-44.5
				c0-0.7-0.2-1.3-0.7-1.8c-0.5-0.5-1-0.8-1.8-0.9C34.4,23,33.8,23.2,33.2,23.6z"/>
			<path style="fill:#9A9A9A;" d="M67.4,34.5l-4.1-1.1v18.8l11.8,3.1v-3.8l-7.7-2V34.5 M52,45.3l8-9.2v-3.8l-12.5-3.6v3.8l8.1,2.3
				L47.4,44v4l13,3.8v-4L52,45.3z"/>
		</g>
	</g>
	<g>
		<path id="Layer1_0_1_STROKES" style="fill:none;stroke:#1B1B1B;stroke-width:5;stroke-linecap:round;stroke-linejoin:round;" d="
			M88.5,34.3c-0.6-2.8-2.5-4.7-5.8-5.7L33.6,15.1c-4.5,0-9.3,1.5-14.4,4.6c-0.7,15.8-3.4,32.2-8,49.3c-0.3,4,0.9,7.1,3.6,9.4
			c8.5,4.5,18.8,6.2,30.9,4.9c2.4-0.2,4.8-0.6,7.2-1.3c2.2-0.8,4.3-1.6,6.3-2.5c2.3-1,4.5-2,6.6-3.2c2.4-1.2,4.7-2.7,6.8-4.4
			c1.4-1.2,2.7-2.4,4-3.7c2-2,3.7-4.2,5.2-6.5c1.6-2.6,2.9-5.4,3.8-8.2C87.2,48,88.2,41.6,88.5,34.3z"/>
	</g>
</g>
</svg>
